X:125
T:A Blast of Wind
R:slip jig
M:9/8
L:1/8
K:D
~d3 dAG FED|dec dAF ~G3|ABc dAG FGA|=cBc E2F GFE:|
!D2g fdf ecA|d2g fdf ~g3|d2g fdf eAB|=cBc E2F GFE|
!D2g fdf ecA|d2g fdf ~g3|afd gec dAB|=cBc E2F GFE||
